X:1
T:My love is lost to me
T:My love is lost to me
T:James Oswald
C:James Oswald
L:1/8
M:2/2
K:Emin
V:1 treble 
V:1
 EF | G2 FE B,2 EF | G2 FE B2 AG | F2 d2 D3 E | FG AF B,3 ^D | E3 F GF GA | BA B^d e3 d/c/ | %7
 B2 AG cB AG |{G} TF4 E2 || ef | g2 gf e3 ^d | (e^de)f B3 ^c | (def)e d<B d<B | AG FE D2 EF | %14
 G2 FE A2 GF | (BAB)^d e3 d/>c/ |{c} B2 AG cB AG |{G} TF4 E2 || %18

